flaticon/transportation/taxi.svg

<svg xmlns="http://www.w3.org/2000/svg" width="32" height="32" viewBox="0 0 24 24">
    <path d="M 24 11.59375 L 18.527344 11.59375 L 11.960938 6.910156 L 11.960938 5.371094 L 6.898438 5.371094 L 6.898438 6.957031 L 3.179688 9.605469 L 0 9.605469 L 0 16.585938 L 4.058594 16.585938 C 4.207031 17.738281 5.191406 18.628906 6.382812 18.628906 C 7.574219 18.628906 8.558594 17.738281 8.707031 16.585938 L 16.34375 16.585938 C 16.492188 17.738281 17.480469 18.628906 18.671875 18.628906 C 19.863281 18.628906 20.847656 17.738281 20.996094 16.585938 L 24 16.585938 Z M 9.515625 11.59375 L 9.515625 7.921875 L 11.621094 7.921875 L 16.769531 11.59375 Z M 10.941406 6.390625 L 10.941406 6.902344 L 7.917969 6.902344 L 7.917969 6.390625 Z M 7.300781 7.921875 L 8.496094 7.921875 L 8.496094 11.59375 L 3.722656 11.59375 L 3.722656 10.472656 Z M 6.382812 17.609375 C 5.652344 17.609375 5.058594 17.015625 5.058594 16.285156 C 5.058594 15.554688 5.652344 14.960938 6.382812 14.960938 C 7.070312 14.960938 7.652344 15.496094 7.703125 16.183594 C 7.707031 16.21875 7.707031 16.25 7.707031 16.285156 C 7.707031 17.015625 7.113281 17.609375 6.382812 17.609375 Z M 18.671875 17.609375 C 17.941406 17.609375 17.347656 17.015625 17.347656 16.285156 C 17.347656 15.554688 17.941406 14.960938 18.671875 14.960938 C 19.402344 14.960938 19.996094 15.554688 19.996094 16.285156 C 19.996094 17.015625 19.402344 17.609375 18.671875 17.609375 Z M 22.980469 15.566406 L 20.902344 15.566406 C 20.597656 14.621094 19.714844 13.9375 18.671875 13.9375 C 17.628906 13.9375 16.742188 14.621094 16.4375 15.566406 L 8.613281 15.566406 C 8.308594 14.621094 7.414062 13.9375 6.382812 13.9375 C 5.339844 13.9375 4.457031 14.621094 4.152344 15.566406 L 1.019531 15.566406 L 1.019531 10.625 L 2.683594 10.625 L 2.683594 12.613281 L 22.980469 12.613281 Z M 22.980469 15.566406"/>
    <path d="M9.113281 13.097656L10.136719 13.097656 10.136719 14.503906 9.113281 14.503906zM11.074219 13.097656L12.09375 13.097656 12.09375 14.503906 11.074219 14.503906zM13.035156 13.097656L14.054688 13.097656 14.054688 14.503906 13.035156 14.503906zM14.996094 13.097656L16.015625 13.097656 16.015625 14.503906 14.996094 14.503906zM14.996094 13.097656"/>
</svg>

<svg xmlns="http://www.w3.org/2000/svg" width="32" height="32" viewBox="0 0 24 24">
    <path d="M24 11.594h-5.473L11.961 6.91V5.371H6.898v1.586L3.18 9.605H0v6.98h4.059a2.345 2.345 0 0 0 2.324 2.044c1.191 0 2.176-.89 2.324-2.043h7.637a2.345 2.345 0 1 0 4.652 0H24zm-14.484 0V7.922h2.105l5.149 3.672zM10.94 6.39v.511H7.918v-.511zm-3.64 1.53h1.195v3.673H3.723v-1.121zm-.918 9.688a1.325 1.325 0 0 1 0-2.648c.687 0 1.27.535 1.32 1.223a1.325 1.325 0 0 1-1.32 1.426zm12.289 0a1.325 1.325 0 0 1 0-2.648 1.325 1.325 0 0 1 0 2.648zm4.308-2.043h-2.078a2.346 2.346 0 0 0-2.23-1.629 2.35 2.35 0 0 0-2.235 1.63H8.614a2.357 2.357 0 0 0-2.23-1.63 2.346 2.346 0 0 0-2.23 1.63H1.02v-4.942h1.664v1.988H22.98zm0 0"/>
    <path d="M9.113 13.098h1.024v1.406H9.113zm0 0M11.074 13.098h1.02v1.406h-1.02zm0 0M13.035 13.098h1.02v1.406h-1.02zm0 0M14.996 13.098h1.02v1.406h-1.02zm0 0"/>
</svg>
